X:0508
T:Semenzati.
M:2/4
L:1/16
Q:1/4=112 "Allegretto"
I: |: ::
Z:Jack Campin * www.campin.me.uk * 2009
K:G
d4      cBAG  |A2F2 G4|   c2e2`d2c2| dcBA  B4 |
d4      cBAG  |A2F2 G4|   c2e2`d2c2|(dcBA) B4::
B2d2    d2(cB)|A2B2 c4|   B2d2 d2cB| AGFE  D4 |
B2d2 {e}d2`cB |A2B2 c4|{c}B2AG A2F2| G4    G4:|

